!!!COM: Claude Goudimel
!!!OMD: Psalm 56: Misericorde à moy povre affligé
**kern	**kern	**kern	**kern
*part4	*part3	*part2	*part1
*staff4	*staff3	*staff2	*staff1
*clefF4	*clefGv2	*clefG2	*clefG2
*k[b-]	*k[b-]	*k[b-]	*k[b-]
!!LO:TX:omd:t=
*M4/4	*M4/4	*M4/4	*M4/4
=1	=1	=1	=1
2FF	2A	2c	2f
4GG	4G	4B-	4d
4AA	4E	4A	4c
=2	=2	=2	=2
2FF	2A	2c	2f
4AA	4c	4A	4f
[4GG	[4B-X	[4d	[4g
=3	=3	=3	=3
4GG]	4B-]	4d]	4g]
4FF	4A	4d	4a
2GG	4G	2d	2b-
.	[4G	.	.
=4	=4	=4	=4
2D	8G/L]	2d	2a
.	16F#X/L	.	.
.	16E/JJ	.	.
.	4F#X	.	.
2GG	2G	2d	2g
=5	=5	=5	=5
2r	2r	2r	2r
2D	2A	2d	2f
=6	=6	=6	=6
4C	4c	4e	4g
4C	4c	4e	4g
2F	2c	2f	2a
=7	=7	=7	=7
2F	2A	2f	2cc
4F	4A	4f	4cc
4BB-	4d	4f	4b-
=8	=8	=8	=8
2C	2c	2e	2g
2GG	2d	2g	2b-
=9	=9	=9	=9
2AA	2c#X	2e	2a
2r	2r	2r	2r
=10	=10	=10	=10
2C	2c	2e	2g
4FF	4c	4f	4a
4GG	4B-X	4d	4g
=11	=11	=11	=11
2AA	2A	2c	2e
2C	2G	2c	2e
=12	=12	=12	=12
4BB-	4B-X	4d	4f
4C	4G	4c	4e
4GG	4G	4c	4d
4GG	4G	4Bn	4d
=13	=13	=13	=13
2C	2G	2c	2c
2FF	2A	2f	2cc
=14	=14	=14	=14
4BB-	4F	4d	4b-
4FF	4c	4f	4a
4C	4c	4e	4g
4D	4A	[4f	4f
=15	=15	=15	=15
2C	2c	4f]	2g
.	.	4e	.
2FF	2c	2f	2f
=16	=16	=16	=16
2r	2r	2r	2r
2BB-	2B-X	2d	2f
=17	=17	=17	=17
4GG	4d	4g	4b-
4BB-	4d	4f	4b-
2FF	2c	2f	2a
=18	=18	=18	=18
2C	2c	2e	2g
4F	4c	4f	4a
4BB-	4d	4f	4b-
=19	=19	=19	=19
4F	4A	4f	4cc
4A	2c	4e	4cc
2G	.	2g	2dd
.	4B	.	.
=20	=20	=20	=20
2C	2c	2e	2cc
2r	2r	2r	2r
=21	=21	=21	=21
2F	2A	2f	2cc
4D	4A	4f	4f
4C	4c	4e	4g
=22	=22	=22	=22
2F	2c	2f	2a
2BB-	2B-X	2d	2f
=23	=23	=23	=23
4GG	4B-X	4d	4g
4FF	4c	4f	4a
4BB-	4d	4f	4b-
4FF	4c	[4f	4a
=24	=24	=24	=24
2C	2c	4f]	2g
.	.	4e	.
2FF	2c	2f	2a
=25	=25	=25	=25
2r	2r	2r	2r
2F	2c	2f	2a
=26	=26	=26	=26
4D	4d	4f	4a
4F	4c	4f	4a
2C	2c	2e	2g
=27	=27	=27	=27
2F	2c	2f	2a
4BB-	4d	4f	4b-
4FF	4c	4f	4a
=28	=28	=28	=28
4C	4c	4e	4g
4D	4F	4A	4f
2C	2G	2c	2e
=29	=29	=29	=29
2FF	2F	2A	2c
2FF	2A	2f	2cc
=30	=30	=30	=30
4BB-	4F	4d	4b-
4FF	4c	4f	4a
4C	4c	4f	4g
4C	4c	4e	4g
=31	=31	=31	=31
1FF	1A	1f	1f
==	==	==	==
*-	*-	*-	*-
!!!software: music21 v.9.7.1
!!!software: music21 v.8.3.0
!!!RDF**kern: > = above
!!!RDF**kern: < = below
